src/icon/entity/cashback-bonus/icon_cashback-bonus_xxl_color.svg

<?xml version="1.0" encoding="UTF-8"?>
<svg width="48px" height="48px" viewBox="0 0 48 48" version="1.1" xmlns="http://www.w3.org/2000/svg" xmlns:xlink="http://www.w3.org/1999/xlink">
    <!-- Generator: Sketch 49.1 (51147) - http://www.bohemiancoding.com/sketch -->
    <title>icon_cashback-bonus_xxl_color</title>
    <desc>Created with Sketch.</desc>
    <defs></defs>
    <g id="icon_cashback-bonus_xxl_color" stroke="none" stroke-width="1" fill="none" fill-rule="evenodd">
        <g id="Group">
            <rect id="Rectangle-4" x="0" y="0" width="48" height="48"></rect>
            <rect id="Rectangle-path-Copy" fill="#FFD700" fill-rule="nonzero" x="3" y="3" width="42" height="42" rx="21"></rect>
            <path d="M26.6266667,14.3596724 C26.8133334,14.8573859 31.1306666,26.5676911 31.2586667,26.918643 C31.2960001,27.0156331 31.2719998,27.177709 31.1186667,27.2351377 C30.9666667,27.2925663 28.7226666,28.1565458 28.5986668,28.2024884 C28.4746666,28.2497074 28.3346666,28.1807934 28.2893335,28.0582793 C28.2426668,27.9370412 27.2559998,25.070722 27.1506665,24.7848559 L20.96,24.7593321 L19.7226667,28.0582793 C19.6786667,28.1756886 19.5453333,28.2548122 19.4133333,28.2024884 L16.8946667,27.2351377 C16.7666341,27.1828447 16.7038991,27.0436719 16.752,26.918643 C16.912,26.4796342 21.1626667,14.9582048 21.3813333,14.3596724 C21.8013333,13.198341 22.344,12 24.0053334,12 C25.6679999,12 26.1906668,13.1791981 26.6266667,14.3596724 Z M16.248,32.6985005 C16.1106667,32.6985005 16,32.812081 16,32.9511856 L16,35.7485909 C16,35.8889715 16.1106667,36 16.248,36 L31.7546667,36 C31.8906665,36 32,35.8889715 32,35.7485909 L32,32.9511856 C32,32.810805 31.8906665,32.6997765 31.7546667,32.6997765 L16.248,32.6997765 L16.248,32.6985005 Z M21.8133333,22.1431458 L26.1746667,22.1431458 L24.2266668,15.8515367 L23.7186667,15.8515367 L21.8133333,22.1431458 Z" id="Shape-Copy" fill="#0B1F35" fill-rule="nonzero"></path>
        </g>
    </g>
</svg>

<svg width="48" height="48" viewBox="0 0 48 48" xmlns="http://www.w3.org/2000/svg"><g fill="none" fill-rule="evenodd"><path d="M0 0h48v48H0z"/><rect fill="gold" fill-rule="nonzero" x="3" y="3" width="42" height="42" rx="21"/><path d="M26.627 14.36c.186.497 4.504 12.208 4.632 12.559.037.097.013.259-.14.316-.152.058-2.396.922-2.52.967a.243.243 0 0 1-.31-.144c-.046-.121-1.033-2.987-1.138-3.273l-6.191-.026-1.237 3.3c-.044.117-.178.196-.31.143l-2.518-.967a.247.247 0 0 1-.143-.316c.16-.44 4.41-11.96 4.63-12.56.42-1.16.962-2.359 2.623-2.359 1.663 0 2.186 1.18 2.622 2.36zM16.248 32.699a.25.25 0 0 0-.248.252v2.798c0 .14.11.251.248.251h15.507a.247.247 0 0 0 .245-.251V32.95c0-.14-.11-.251-.245-.251H16.248v-.001zm5.565-10.556h4.362l-1.948-6.291h-.508l-1.906 6.291z" fill="#0B1F35" fill-rule="nonzero"/></g></svg>
